X: 1
T: Peatbog, The
M: 6/8
L: 1/8
R: jig
K: Dmaj
|:dcd cdc|BAF DFA|AGE EGB|BAF DFA|
~d3 cdc|BAF DFA|AGF GFE|1~D3 DFA:|2~D3 DEF||
DEF DEF|GE=C DEF|GE=C DEF|AFD DEF|
DEF DEF|GE=C DEF|AGF GFE|1~D3 DEF:|2DDD DFA||
